public/currency/card.svg

<?xml version="1.0" encoding="utf-8"?>
<!-- Uploaded to: SVG Repo, www.svgrepo.com, Generator: SVG Repo Mixer Tools -->
<svg width="800px" height="800px" viewBox="0 -4 32 32" fill="none" xmlns="http://www.w3.org/2000/svg">
<path d="M29.0909 0H2.90909C1.30244 0 0 1.30244 0 2.90909V20.3636C0 21.9703 1.30244 23.2727 2.90909 23.2727H29.0909C30.6976 23.2727 32 21.9703 32 20.3636V2.90909C32 1.30244 30.6976 0 29.0909 0Z" fill="url(#paint0_radial_103_1394)"/>
<g style="mix-blend-mode:soft-light">
<g style="mix-blend-mode:soft-light">
<path d="M32 4.36365H0V10.1818H32V4.36365Z" fill="#000000"/>
</g>
</g>
<g style="mix-blend-mode:soft-light">
<g style="mix-blend-mode:soft-light">
<path d="M26.9088 16H22.5451C22.1435 16 21.8179 16.3256 21.8179 16.7273V18.1818C21.8179 18.5835 22.1435 18.9091 22.5451 18.9091H26.9088C27.3104 18.9091 27.6361 18.5835 27.6361 18.1818V16.7273C27.6361 16.3256 27.3104 16 26.9088 16Z" fill="white"/>
</g>
</g>
<g style="mix-blend-mode:soft-light">
<g style="mix-blend-mode:soft-light">
<path fill-rule="evenodd" clip-rule="evenodd" d="M8.00009 19.3787C7.86359 19.5335 7.71234 19.6721 7.54633 19.7947C7.38032 19.9173 7.20327 20.0211 7.01519 20.106C6.82709 20.1909 6.63218 20.255 6.43043 20.2985C6.22869 20.3419 6.02463 20.3636 5.81827 20.3636C5.723 20.3636 5.62795 20.3589 5.53314 20.3496C5.43832 20.3402 5.34419 20.3263 5.25074 20.3077C5.15729 20.2891 5.06498 20.266 4.9738 20.2383C4.88263 20.2107 4.79303 20.1786 4.705 20.1422C4.61698 20.1057 4.53096 20.065 4.44694 20.0201C4.36291 19.9752 4.28128 19.9263 4.20207 19.8733C4.12285 19.8204 4.04641 19.7637 3.97276 19.7033C3.89911 19.6428 3.8286 19.5789 3.76123 19.5115C3.69386 19.4442 3.62996 19.3737 3.56951 19.3C3.50907 19.2264 3.45238 19.1499 3.39945 19.0707C3.34652 18.9915 3.29759 18.9099 3.25268 18.8258C3.20777 18.7418 3.16708 18.6558 3.13062 18.5678C3.09416 18.4797 3.0621 18.3901 3.03444 18.299C3.00679 18.2078 2.98366 18.1155 2.96508 18.022C2.94649 17.9286 2.93253 17.8345 2.92319 17.7396C2.91385 17.6448 2.90918 17.5498 2.90918 17.4545C2.90918 17.3592 2.91385 17.2642 2.92319 17.1694C2.93253 17.0745 2.94649 16.9804 2.96508 16.887C2.98366 16.7935 3.00679 16.7012 3.03444 16.61C3.0621 16.5189 3.09416 16.4293 3.13062 16.3412C3.16708 16.2532 3.20777 16.1672 3.25268 16.0832C3.29759 15.9991 3.34652 15.9175 3.39945 15.8383C3.45238 15.7591 3.50907 15.6826 3.56951 15.609C3.62996 15.5353 3.69386 15.4648 3.76123 15.3975C3.8286 15.3301 3.89911 15.2662 3.97276 15.2057C4.04641 15.1453 4.12285 15.0886 4.20207 15.0357C4.28128 14.9827 4.36291 14.9338 4.44694 14.8889C4.53096 14.844 4.61698 14.8033 4.705 14.7669C4.79303 14.7304 4.88263 14.6983 4.9738 14.6707C5.06498 14.643 5.15729 14.6199 5.25074 14.6013C5.34419 14.5827 5.43832 14.5688 5.53314 14.5594C5.62795 14.5501 5.723 14.5454 5.81827 14.5454C6.02463 14.5454 6.22869 14.5671 6.43043 14.6105C6.63218 14.654 6.82709 14.7181 7.01519 14.803C7.20327 14.888 7.38032 14.9917 7.54633 15.1143C7.71234 15.2369 7.86359 15.3755 8.00009 15.5303C8.13658 15.3755 8.28784 15.2369 8.45385 15.1143C8.61986 14.9917 8.79691 14.888 8.98499 14.803C9.17308 14.7181 9.368 14.654 9.56975 14.6105C9.77149 14.5671 9.97554 14.5454 10.1819 14.5454C10.2772 14.5454 10.3722 14.5501 10.467 14.5594C10.5619 14.5688 10.656 14.5827 10.7494 14.6013C10.8429 14.6199 10.9352 14.643 11.0264 14.6707C11.1175 14.6983 11.2071 14.7304 11.2952 14.7669C11.3832 14.8033 11.4692 14.844 11.5532 14.8889C11.6373 14.9338 11.7189 14.9827 11.7981 15.0357C11.8773 15.0886 11.9538 15.1453 12.0274 15.2057C12.1011 15.2662 12.1716 15.3301 12.2389 15.3975C12.3063 15.4648 12.3702 15.5353 12.4307 15.609C12.4911 15.6826 12.5478 15.7591 12.6007 15.8383C12.6537 15.9175 12.7026 15.9991 12.7475 16.0832C12.7924 16.1672 12.8331 16.2532 12.8696 16.3412C12.906 16.4293 12.9381 16.5189 12.9657 16.61C12.9934 16.7012 13.0165 16.7935 13.0351 16.887C13.0537 16.9804 13.0677 17.0745 13.077 17.1694C13.0863 17.2642 13.091 17.3592 13.091 17.4545C13.091 17.5498 13.0863 17.6448 13.077 17.7396C13.0677 17.8345 13.0537 17.9286 13.0351 18.022C13.0165 18.1155 12.9934 18.2078 12.9657 18.299C12.9381 18.3901 12.906 18.4797 12.8696 18.5678C12.8331 18.6558 12.7924 18.7418 12.7475 18.8258C12.7026 18.9099 12.6537 18.9915 12.6007 19.0707C12.5478 19.1499 12.4911 19.2264 12.4307 19.3C12.3702 19.3737 12.3063 19.4442 12.2389 19.5115C12.1716 19.5789 12.1011 19.6428 12.0274 19.7033C11.9538 19.7637 11.8773 19.8204 11.7981 19.8733C11.7189 19.9263 11.6373 19.9752 11.5532 20.0201C11.4692 20.065 11.3832 20.1057 11.2952 20.1422C11.2071 20.1786 11.1175 20.2107 11.0264 20.2383C10.9352 20.266 10.8429 20.2891 10.7494 20.3077C10.656 20.3263 10.5619 20.3402 10.467 20.3496C10.3722 20.3589 10.2772 20.3636 10.1819 20.3636C9.97554 20.3636 9.77149 20.3419 9.56975 20.2985C9.368 20.255 9.17308 20.1909 8.98499 20.106C8.79691 20.0211 8.61986 19.9173 8.45385 19.7947C8.28784 19.6721 8.13658 19.5335 8.00009 19.3787Z" fill="white"/>
</g>
</g>
<defs>
<radialGradient id="paint0_radial_103_1394" cx="0" cy="0" r="1" gradientUnits="userSpaceOnUse" gradientTransform="translate(1.09411 23.2727) rotate(143.02) scale(38.6884 53.1966)">
<stop stop-color="#5E22CD"/>
<stop offset="1" stop-color="#AE76FF"/>
</radialGradient>
</defs>
</svg>

<svg xmlns="http://www.w3.org/2000/svg" width="800" height="800" fill="none" viewBox="0 -4 32 32"><path fill="url(#a)" d="M29.09 0H2.91A2.91 2.91 0 0 0 0 2.91v17.454a2.91 2.91 0 0 0 2.91 2.909h26.18a2.909 2.909 0 0 0 2.91-2.91V2.91A2.91 2.91 0 0 0 29.09 0Z"/><path fill="#000" d="M32 4.364H0v5.818h32V4.364Z" style="mix-blend-mode:soft-light"/><path fill="#fff" d="M26.909 16h-4.364a.727.727 0 0 0-.727.727v1.455c0 .402.325.727.727.727h4.364a.727.727 0 0 0 .727-.727v-1.455A.727.727 0 0 0 26.91 16Z" style="mix-blend-mode:soft-light"/><path fill="#fff" fill-rule="evenodd" d="M8 19.379a2.9 2.9 0 0 1-2.182.985 2.92 2.92 0 0 1-1.845-.66 2.915 2.915 0 0 1-1.008-2.817A2.907 2.907 0 0 1 6.43 14.61a2.906 2.906 0 0 1 1.57.92 2.9 2.9 0 0 1 2.182-.985 2.918 2.918 0 0 1 2.057.853 2.89 2.89 0 0 1 .796 1.489 2.886 2.886 0 0 1-.07 1.412 2.924 2.924 0 0 1-.938 1.404 2.903 2.903 0 0 1-2.457.596 2.906 2.906 0 0 1-1.57-.92Z" clip-rule="evenodd" style="mix-blend-mode:soft-light"/><defs><radialGradient id="a" cx="0" cy="0" r="1" gradientTransform="rotate(143.02 -3.344 11.82) scale(38.6884 53.1966)" gradientUnits="userSpaceOnUse"><stop stop-color="#5E22CD"/><stop offset="1" stop-color="#AE76FF"/></radialGradient></defs></svg>
